svg/color/bal.svg

<svg width="64" height="65" viewBox="0 0 64 65" fill="none" xmlns="http://www.w3.org/2000/svg">
<g clip-path="url(#clip0_11313_1878)">
<rect x="0.00537109" y="0.303711" width="64" height="64" rx="32" fill="#1E1E1E"/>
<path d="M32.4855 45.6797C22.2519 45.6797 13.9575 42.7229 13.9575 38.7613C13.9575 36.6941 16.2167 34.8317 19.8327 33.5197C22.6551 35.3309 27.3911 36.2589 32.7607 36.2589C38.0023 36.2589 42.6359 35.1261 45.4839 33.3917C48.8951 34.6909 51.0135 36.5021 51.0135 38.4989C51.0135 42.4669 42.7191 45.6797 32.4855 45.6797Z" fill="white"/>
<path d="M32.5944 35.3691C24.8376 35.3691 18.5464 32.9371 18.5464 29.9355C18.5464 28.2715 20.4856 26.7803 23.5256 25.7883C25.6952 26.9211 28.9464 27.6443 32.5944 27.6443C36.2424 27.6443 39.4936 26.9211 41.6632 25.7883C44.7096 26.7867 46.6424 28.2715 46.6424 29.9355C46.6488 32.9371 40.3576 35.3691 32.5944 35.3691Z" fill="white"/>
<path d="M32.5429 26.7422C26.5461 26.7422 21.6821 24.7326 21.6821 22.2622C21.6821 19.7918 26.5461 17.7822 32.5429 17.7822C38.5397 17.7822 43.4037 19.7918 43.4037 22.2622C43.4037 24.7326 38.5397 26.7422 32.5429 26.7422Z" fill="white"/>
</g>
<rect x="0.505371" y="0.803711" width="63" height="63" rx="31.5" stroke="#070B14" stroke-opacity="0.15"/>
<defs>
<clipPath id="clip0_11313_1878">
<rect x="0.00537109" y="0.303711" width="64" height="64" rx="32" fill="white"/>
</clipPath>
</defs>
</svg>

<svg xmlns="http://www.w3.org/2000/svg" width="64" height="65" fill="none" viewBox="0 0 64 65"><g clip-path="url(#bal_svg-a)"><rect width="64" height="64" x=".005" y=".304" fill="#1E1E1E" rx="32"/><path fill="#fff" d="M32.486 45.68c-10.234 0-18.528-2.957-18.528-6.919 0-2.067 2.259-3.93 5.875-5.241 2.822 1.81 7.558 2.739 12.928 2.739 5.241 0 9.875-1.133 12.723-2.867 3.411 1.299 5.53 3.11 5.53 5.107 0 3.968-8.295 7.18-18.528 7.18"/><path fill="#fff" d="M32.594 35.37c-7.756 0-14.048-2.433-14.048-5.434 0-1.665 1.94-3.156 4.98-4.148 2.17 1.133 5.42 1.856 9.068 1.856s6.9-.723 9.07-1.856c3.046.999 4.978 2.483 4.978 4.148.007 3.001-6.284 5.433-14.048 5.433"/><path fill="#fff" d="M32.543 26.742c-5.997 0-10.86-2.01-10.86-4.48s4.863-4.48 10.86-4.48 10.86 2.01 10.86 4.48-4.863 4.48-10.86 4.48"/></g><rect width="63" height="63" x=".505" y=".804" stroke="#070B14" stroke-opacity=".15" rx="31.5"/><defs><clipPath id="bal_svg-a"><rect width="64" height="64" x=".005" y=".304" fill="#fff" rx="32"/></clipPath></defs></svg>
